assets/images/document-text.svg

<svg width="33" height="32" viewBox="0 0 33 32" fill="none" xmlns="http://www.w3.org/2000/svg">
<g id="document-text">
<g id="vuesax/bold/document-text">
<g id="document-text_2">
<path id="Vector" d="M22 2.6665H11.3333C6.66663 2.6665 4.66663 5.33317 4.66663 9.33317V22.6665C4.66663 26.6665 6.66663 29.3332 11.3333 29.3332H22C26.6666 29.3332 28.6666 26.6665 28.6666 22.6665V9.33317C28.6666 5.33317 26.6666 2.6665 22 2.6665ZM11.3333 16.3332H16.6666C17.2133 16.3332 17.6666 16.7865 17.6666 17.3332C17.6666 17.8798 17.2133 18.3332 16.6666 18.3332H11.3333C10.7866 18.3332 10.3333 17.8798 10.3333 17.3332C10.3333 16.7865 10.7866 16.3332 11.3333 16.3332ZM22 23.6665H11.3333C10.7866 23.6665 10.3333 23.2132 10.3333 22.6665C10.3333 22.1198 10.7866 21.6665 11.3333 21.6665H22C22.5466 21.6665 23 22.1198 23 22.6665C23 23.2132 22.5466 23.6665 22 23.6665ZM25.3333 12.3332H22.6666C20.64 12.3332 19 10.6932 19 8.6665V5.99984C19 5.45317 19.4533 4.99984 20 4.99984C20.5466 4.99984 21 5.45317 21 5.99984V8.6665C21 9.5865 21.7466 10.3332 22.6666 10.3332H25.3333C25.88 10.3332 26.3333 10.7865 26.3333 11.3332C26.3333 11.8798 25.88 12.3332 25.3333 12.3332Z" fill="#292D32"/>
</g>
</g>
</g>
</svg>

<svg width="33" height="32" fill="none" xmlns="http://www.w3.org/2000/svg"><path d="M22 2.667H11.333c-4.666 0-6.666 2.666-6.666 6.666v13.333c0 4 2 6.667 6.666 6.667H22c4.667 0 6.667-2.666 6.667-6.666V9.332c0-4-2-6.667-6.667-6.667ZM11.333 16.332h5.334c.546 0 1 .454 1 1 0 .547-.454 1-1 1h-5.334c-.546 0-1-.453-1-1 0-.546.454-1 1-1ZM22 23.667H11.333c-.546 0-1-.454-1-1 0-.547.454-1 1-1H22c.547 0 1 .453 1 1 0 .546-.453 1-1 1Zm3.333-11.334h-2.666A3.665 3.665 0 0 1 19 8.666V6c0-.547.453-1 1-1 .547 0 1 .453 1 1v2.666c0 .92.747 1.667 1.667 1.667h2.666c.547 0 1 .454 1 1 0 .547-.453 1-1 1Z" fill="#292D32"/></svg>
